dist/img/catalog/chars/timer.svg

<svg width="17" height="20" viewBox="0 0 17 20" fill="none" xmlns="http://www.w3.org/2000/svg">
<path d="M5.87988 0V1.66838H7.54826V2.50255C8.13217 2.41914 8.63268 2.41914 9.21664 2.50255V1.66838H10.885V0H5.87988Z" fill="#0F0908"/>
<path d="M14.0551 5.50573L14.639 4.92182L15.3064 5.58918L16.4742 4.42131L13.9717 1.91876L12.8038 3.08663L13.4712 3.75395L12.7204 4.50471C8.71634 2.08557 3.5444 3.33685 1.20871 7.34092C-1.12699 11.345 0.124243 16.3501 4.04491 18.7692C7.96558 21.1884 13.1375 19.9371 15.4732 15.933C17.5587 12.5129 16.9747 8.17513 14.0551 5.50573ZM8.38264 17.4345C5.12933 17.4345 2.54338 14.8486 2.54338 11.5953C2.54338 8.34198 5.12933 5.75599 8.38264 5.75599V11.5952H14.2219C14.2219 14.8486 11.636 17.4345 8.38264 17.4345Z" fill="#0F0908"/>
</svg>

<svg width="17" height="20" viewBox="0 0 17 20" fill="none" xmlns="http://www.w3.org/2000/svg"><path d="M5.88 0v1.668h1.668v.835a5.593 5.593 0 011.669 0v-.835h1.668V0H5.88z" fill="#0F0908"/><path d="M14.055 5.506l.584-.584.667.667 1.168-1.168-2.502-2.502-1.168 1.168.667.667-.75.75C8.715 2.087 3.543 3.338 1.208 7.342c-2.336 4.004-1.085 9.01 2.836 11.428 3.92 2.42 9.092 1.168 11.428-2.836 2.086-3.42 1.502-7.758-1.418-10.427zM8.383 17.434a5.803 5.803 0 01-5.84-5.839 5.803 5.803 0 015.84-5.839v5.84h5.839a5.803 5.803 0 01-5.84 5.838z" fill="#0F0908"/></svg>
